copytrade/img/icomoon/hide-password.svg

<svg width="24" height="24" viewBox="0 0 24 24" fill="none" xmlns="http://www.w3.org/2000/svg">
<path fill-rule="evenodd" clip-rule="evenodd" d="M12.0002 7C11.7171 7 11.4355 7.02323 11.1558 7.06728C10.6103 7.1532 10.0984 6.7806 10.0124 6.23504C9.92649 5.68948 10.2991 5.17756 10.8447 5.09163C11.2216 5.03226 11.6073 5 12.0002 5C14.1101 5 16.006 5.92747 17.5091 7.00885C19.02 8.0959 20.2202 9.40025 20.9601 10.2985C21.7807 11.2948 21.7807 12.7052 20.9601 13.7015C20.6288 14.1037 20.2085 14.5833 19.7125 15.0866C19.3248 15.4799 18.6916 15.4845 18.2983 15.0968C17.9049 14.7092 17.9003 14.076 18.288 13.6827C18.7355 13.2286 19.1161 12.7945 19.4163 12.43C19.6286 12.1722 19.6286 11.8278 19.4163 11.57C18.7361 10.7442 17.6602 9.58138 16.341 8.63233C15.014 7.6776 13.526 7 12.0002 7ZM7.9077 8.45823C6.4768 9.43461 5.30791 10.6912 4.58403 11.57C4.37173 11.8278 4.37173 12.1722 4.58403 12.43C5.26425 13.2558 6.34019 14.4186 7.65931 15.3677C8.98633 16.3224 10.4744 17 12.0002 17C13.3172 17 14.608 16.4956 15.7975 15.7366L16.8733 17.4227C15.491 18.3046 13.8266 19 12.0002 19C9.89024 19 7.99432 18.0725 6.49128 16.9912C4.98034 15.9041 3.78013 14.5998 3.04026 13.7015C2.21965 12.7052 2.21965 11.2948 3.04026 10.2985C3.82531 9.34539 5.13185 7.9311 6.78042 6.80619L7.9077 8.45823Z" fill="#282C33"/>
<path fill-rule="evenodd" clip-rule="evenodd" d="M2.29289 2.29289C2.68342 1.90237 3.31658 1.90237 3.70711 2.29289L21.7071 20.2929C22.0976 20.6834 22.0976 21.3166 21.7071 21.7071C21.3166 22.0976 20.6834 22.0976 20.2929 21.7071L2.29289 3.70711C1.90237 3.31658 1.90237 2.68342 2.29289 2.29289Z" fill="#282C33"/>
<path fill-rule="evenodd" clip-rule="evenodd" d="M8.84299 11.8106C9.37646 11.6676 9.92479 11.9842 10.0677 12.5177C10.1586 12.8568 10.3371 13.166 10.5854 13.4142C10.8336 13.6625 11.1428 13.841 11.482 13.9319C12.0154 14.0748 12.332 14.6232 12.1891 15.1566C12.0461 15.6901 11.4978 16.0067 10.9643 15.8637C10.2861 15.682 9.66765 15.325 9.17116 14.8285C8.67467 14.332 8.31761 13.7135 8.13588 13.0353C7.99294 12.5018 8.30953 11.9535 8.84299 11.8106Z" fill="#282C33"/>
</svg>

<svg width="24" height="24" fill="none" xmlns="http://www.w3.org/2000/svg"><path fill-rule="evenodd" clip-rule="evenodd" d="M12 7c-.283 0-.565.023-.844.067a1 1 0 01-.311-1.975A7.42 7.42 0 0112 5c2.11 0 4.006.927 5.51 2.009 1.51 1.087 2.71 2.391 3.45 3.29a2.66 2.66 0 010 3.402c-.331.403-.752.882-1.248 1.386a1 1 0 01-1.424-1.404c.447-.454.828-.889 1.128-1.253a.66.66 0 000-.86c-.68-.826-1.756-1.989-3.075-2.938C15.014 7.678 13.526 7 12.001 7zM7.908 8.458c-1.431.977-2.6 2.233-3.324 3.112a.66.66 0 000 .86c.68.826 1.756 1.989 3.075 2.938C8.986 16.322 10.474 17 12 17c1.317 0 2.608-.504 3.797-1.263l1.076 1.686C15.491 18.305 13.827 19 12 19c-2.11 0-4.006-.927-5.509-2.009-1.51-1.087-2.71-2.391-3.45-3.29a2.66 2.66 0 010-3.402c.784-.954 2.09-2.368 3.74-3.493l1.127 1.652z" fill="#282C33"/><path fill-rule="evenodd" clip-rule="evenodd" d="M2.293 2.293a1 1 0 011.414 0l18 18a1 1 0 01-1.414 1.414l-18-18a1 1 0 010-1.414zm6.55 9.517a1 1 0 011.225.708 2 2 0 001.414 1.414 1 1 0 01-.518 1.932 4 4 0 01-2.828-2.829 1 1 0 01.707-1.224z" fill="#282C33"/></svg>
